svg/l/JE.svg

<svg width="32" height="24" viewBox="0 0 32 24" fill="none" xmlns="http://www.w3.org/2000/svg">
<g clip-path="url(#clip0_270_67452)">
<rect width="32" height="24" fill="white"/>
<path fill-rule="evenodd" clip-rule="evenodd" d="M0 0H32V24H0V0Z" fill="#F7FCFF"/>
<path d="M-2.70149 1.24477L-4.75002 0.0060668V2.39999V22.4V24.7939L-2.70149 23.5552L13.8363 13.5552L15.7468 12.4L13.8363 11.2448L-2.70149 1.24477Z" fill="#F7FCFF" stroke="#E31D1C" stroke-width="2.7"/>
<path d="M34.9209 1.23259L36.9489 0.0548172V2.39999V22.4V24.7452L34.9209 23.5674L17.7021 13.5674L15.6919 12.4L17.7021 11.2326L34.9209 1.23259Z" fill="#F7FCFF" stroke="#E31D1C" stroke-width="2.7"/>
<path fill-rule="evenodd" clip-rule="evenodd" d="M13.6746 4.70301C13.6746 4.70301 12.816 8.50132 15.7807 9.96013C15.7807 9.96013 18.6269 8.4088 17.9877 4.70301C17.9877 4.70301 16.7653 4.29412 15.7934 4.29412C14.8214 4.29412 13.6746 4.70301 13.6746 4.70301Z" fill="#E31D1C"/>
<path fill-rule="evenodd" clip-rule="evenodd" d="M13.9824 5.49855C13.9824 5.49855 14.2994 5.35817 14.4564 5.49855C14.6134 5.63893 14.742 5.48692 14.742 5.40224C14.742 5.31756 14.9912 5.02686 14.9912 5.26271C14.9912 5.49855 14.9136 5.63171 15.1327 5.63171C15.3518 5.63171 16.3382 5.30593 16.5748 5.40224C16.8113 5.49855 16.9924 5.4746 16.9322 5.33641C16.8721 5.19822 16.7175 5.11185 16.42 5.18728C16.1224 5.26271 16.1926 5.33641 15.9354 5.33641C15.6782 5.33641 15.3919 5.26271 15.3919 5.26271C15.3919 5.26271 15.4724 5.13878 15.766 5.22693C16.0596 5.31508 16.4646 5.11776 16.5748 5.11776C16.6849 5.11776 16.9881 5.11185 17.0181 5.18728C17.0482 5.26271 17.2312 5.33192 17.0917 5.40224C16.9522 5.47256 16.7221 5.51661 16.8804 5.6067C17.0387 5.69679 17.4027 5.67943 17.4203 5.77314C17.4378 5.86686 17.6104 6.0068 17.5411 6.0068C17.4719 6.0068 17.3467 6.13878 17.2302 6.0986C17.1137 6.05841 17.1 6.02313 17.2117 5.99057C17.3234 5.95801 17.3224 5.82111 17.2302 5.82111C17.138 5.82111 17.183 5.86908 16.9732 5.82111C16.7633 5.77314 16.4856 5.71982 16.5023 5.82111C16.519 5.9224 16.6556 6.07788 16.4036 6.0986C16.1515 6.11932 16.0335 6.20251 15.9845 6.13552C15.9354 6.06852 15.76 5.97925 15.8979 5.95062C16.0358 5.922 16.1676 6.04793 16.2173 6.02736C16.2669 6.0068 16.3795 5.99536 16.2852 5.90823C16.1909 5.82111 16.0355 5.76982 16.1796 5.70461C16.3237 5.6394 16.21 5.63806 15.9354 5.77314C15.6608 5.90823 15.5081 6.02303 15.267 6.0068C15.026 5.99057 14.9357 6.01247 14.8582 5.99057C14.7807 5.96867 14.4034 6.23252 14.2947 6.16556C14.1861 6.0986 13.8353 6.07291 13.8984 5.99057C13.9616 5.90823 14.0463 5.86584 14.1408 5.90823C14.2352 5.95062 14.329 5.99301 14.3927 5.95062C14.4564 5.90823 14.6403 5.76277 14.594 5.73369C14.5478 5.70461 14.5925 5.6067 14.3306 5.6067C14.0687 5.6067 13.9766 5.71582 13.9145 5.64706C13.8523 5.57831 13.9824 5.49855 13.9824 5.49855Z" fill="#FFD100"/>
<path fill-rule="evenodd" clip-rule="evenodd" d="M14.244 6.74664C14.244 6.74664 14.5228 6.62322 14.6608 6.74664C14.7988 6.87005 14.9118 6.73641 14.9118 6.66197C14.9118 6.58752 15.1309 6.33195 15.1309 6.53929C15.1309 6.74664 15.0627 6.86371 15.2553 6.86371C15.4479 6.86371 16.3152 6.57729 16.5232 6.66197C16.7311 6.74664 16.8903 6.72558 16.8374 6.60409C16.7845 6.4826 16.6487 6.40666 16.387 6.47298C16.1254 6.53929 16.1872 6.60409 15.961 6.60409C15.7349 6.60409 15.4833 6.53929 15.4833 6.53929C15.4833 6.53929 15.554 6.43034 15.8121 6.50784C16.0703 6.58534 16.4263 6.41186 16.5232 6.41186C16.62 6.41186 16.8865 6.40666 16.913 6.47298C16.9394 6.53929 17.1003 6.60014 16.9776 6.66197C16.855 6.72379 16.6527 6.76251 16.7919 6.84172C16.931 6.92092 17.2511 6.90566 17.2665 6.98805C17.2819 7.07044 17.4336 7.19347 17.3727 7.19347C17.3119 7.19347 17.2018 7.30951 17.0994 7.27418C16.9969 7.23885 16.9849 7.20782 17.0831 7.1792C17.1814 7.15058 17.1804 7.03022 17.0994 7.03022C17.0184 7.03022 17.0579 7.07239 16.8734 7.03022C16.6889 6.98805 16.4448 6.94117 16.4595 7.03022C16.4741 7.11927 16.5942 7.25596 16.3726 7.27418C16.151 7.29239 16.0473 7.36553 16.0042 7.30663C15.961 7.24773 15.8069 7.16925 15.9281 7.14408C16.0493 7.11892 16.1652 7.22963 16.2088 7.21155C16.2525 7.19347 16.3515 7.18341 16.2686 7.10681C16.1857 7.03022 16.049 6.98512 16.1757 6.92779C16.3024 6.87046 16.2024 6.86929 15.961 6.98805C15.7196 7.10681 15.5854 7.20774 15.3735 7.19347C15.1615 7.1792 15.0821 7.19845 15.014 7.1792C14.9459 7.15995 14.6142 7.39192 14.5186 7.33305C14.4231 7.27418 14.1147 7.25159 14.1702 7.1792C14.2257 7.10681 14.3003 7.06955 14.3833 7.10681C14.4663 7.14408 14.5488 7.18135 14.6048 7.14408C14.6608 7.10681 14.8224 6.97893 14.7818 6.95336C14.7411 6.92779 14.7804 6.84172 14.5502 6.84172C14.3199 6.84172 14.239 6.93765 14.1843 6.8772C14.1297 6.81676 14.244 6.74664 14.244 6.74664Z" fill="#FFD100"/>
<path fill-rule="evenodd" clip-rule="evenodd" d="M14.6142 8.01349C14.6142 8.01349 14.8256 7.91991 14.9302 8.01349C15.0349 8.10708 15.1206 8.00574 15.1206 7.94929C15.1206 7.89283 15.2868 7.69903 15.2868 7.85626C15.2868 8.01349 15.2351 8.10227 15.3811 8.10227C15.5271 8.10227 16.1848 7.88508 16.3425 7.94929C16.5002 8.01349 16.6209 7.99752 16.5808 7.9054C16.5407 7.81327 16.4377 7.75569 16.2393 7.80598C16.0409 7.85626 16.0877 7.9054 15.9162 7.9054C15.7448 7.9054 15.5539 7.85626 15.5539 7.85626C15.5539 7.85626 15.6075 7.77364 15.8033 7.83241C15.9991 7.89118 16.2691 7.75963 16.3425 7.75963C16.4159 7.75963 16.618 7.75569 16.6381 7.80598C16.6581 7.85626 16.7801 7.90241 16.6871 7.94929C16.5941 7.99616 16.4407 8.02553 16.5462 8.08559C16.6518 8.14565 16.8945 8.13408 16.9062 8.19655C16.9179 8.25903 17.0329 8.35233 16.9867 8.35233C16.9406 8.35233 16.8571 8.44031 16.7794 8.41352C16.7018 8.38673 16.6926 8.36321 16.7671 8.3415C16.8416 8.3198 16.8409 8.22853 16.7794 8.22853C16.718 8.22853 16.748 8.26051 16.6081 8.22853C16.4682 8.19655 16.2831 8.16101 16.2942 8.22853C16.3053 8.29606 16.3964 8.39971 16.2284 8.41352C16.0603 8.42734 15.9817 8.4828 15.9489 8.43814C15.9162 8.39347 15.7993 8.33396 15.8913 8.31487C15.9832 8.29579 16.071 8.37974 16.1041 8.36603C16.1373 8.35233 16.2123 8.3447 16.1494 8.28661C16.0866 8.22853 15.983 8.19434 16.079 8.15086C16.1751 8.10739 16.0993 8.1065 15.9162 8.19655C15.7332 8.28661 15.6314 8.36315 15.4707 8.35233C15.31 8.3415 15.2498 8.3561 15.1981 8.3415C15.1465 8.32691 14.8949 8.5028 14.8225 8.45816C14.75 8.41352 14.5162 8.3964 14.5583 8.3415C14.6004 8.28661 14.6569 8.25835 14.7198 8.28661C14.7828 8.31487 14.8453 8.34313 14.8878 8.31487C14.9302 8.28661 15.0528 8.18964 15.022 8.17025C14.9912 8.15086 15.021 8.08559 14.8464 8.08559C14.6718 8.08559 14.6104 8.15833 14.569 8.1125C14.5275 8.06667 14.6142 8.01349 14.6142 8.01349Z" fill="#FFD100"/>
</g>
<defs>
<clipPath id="clip0_270_67452">
<rect width="32" height="24" fill="white"/>
</clipPath>
</defs>
</svg>

<svg width="32" height="24" fill="none" xmlns="http://www.w3.org/2000/svg">
  <mask id="a" maskUnits="userSpaceOnUse" x="0" y="0" width="32" height="24">
    <path fill="#fff" d="M0 0h32v24H0z"/>
  </mask>
  <g mask="url(#a)">
    <path fill-rule="evenodd" clip-rule="evenodd" d="M0 0h32v24H0V0z" fill="#F7FCFF"/>
    <path d="M-2.701 1.245L-4.75.006v24.788l2.049-1.239 16.537-10 1.91-1.155-1.91-1.155-16.537-10z" fill="#F7FCFF" stroke="#E31D1C" stroke-width="2.7"/>
    <path d="M34.92 1.233L36.95.055v24.69l-2.028-1.178-17.219-10-2.01-1.167 2.01-1.167 17.219-10z" fill="#F7FCFF" stroke="#E31D1C" stroke-width="2.7"/>
    <path fill-rule="evenodd" clip-rule="evenodd" d="M13.675 4.703s-.859 3.798 2.106 5.257c0 0 2.846-1.551 2.207-5.257 0 0-1.223-.409-2.195-.409-.972 0-2.118.409-2.118.409z" fill="#E31D1C"/>
    <path fill-rule="evenodd" clip-rule="evenodd" d="M13.982 5.499s.317-.14.474 0c.157.14.286-.012.286-.097 0-.084.25-.375.25-.14 0 .237-.078.37.14.37.22 0 1.206-.326 1.443-.23.236.097.417.073.357-.066-.06-.138-.214-.224-.512-.149-.298.076-.227.15-.485.15-.257 0-.543-.074-.543-.074s.08-.124.374-.036.699-.11.809-.11c.11 0 .413-.005.443.07.03.076.213.145.074.215-.14.07-.37.115-.212.205.159.09.523.072.54.166.018.094.19.234.121.234-.07 0-.194.132-.31.092-.117-.04-.131-.076-.02-.108.112-.033.111-.17.02-.17-.093 0-.048.048-.258 0-.21-.048-.487-.101-.47 0 .016.101.153.257-.1.278-.252.02-.37.104-.418.037-.05-.067-.225-.157-.087-.185.138-.029.27.097.32.076.049-.02.162-.032.067-.119-.094-.087-.25-.138-.105-.203.144-.066.03-.067-.245.068-.274.135-.427.25-.668.234-.241-.016-.331.005-.409-.016-.077-.022-.455.242-.563.175-.109-.067-.46-.093-.397-.175.064-.083.148-.125.243-.083.094.043.188.085.252.043.063-.043.247-.188.201-.217-.046-.03-.002-.127-.263-.127-.262 0-.354.109-.416.04-.063-.069.067-.148.067-.148zm.262 1.248s.279-.124.417 0c.138.123.25-.01.25-.085 0-.074.22-.33.22-.123 0 .208-.068.325.124.325.193 0 1.06-.287 1.268-.202.208.085.367.064.314-.058-.052-.121-.188-.197-.45-.131s-.2.131-.426.131c-.226 0-.478-.065-.478-.065s.071-.109.33-.031c.257.077.613-.096.71-.096.097 0 .364-.005.39.061.026.066.187.127.065.189-.123.062-.325.1-.186.18.139.079.46.064.474.146.016.082.168.205.107.205-.061 0-.171.117-.274.081-.102-.035-.114-.066-.016-.095.098-.028.097-.149.016-.149-.08 0-.041.042-.226 0-.184-.042-.428-.089-.414 0 .015.09.135.226-.086.244-.222.018-.326.092-.369.033-.043-.06-.197-.138-.076-.163.121-.025.237.086.28.068.045-.019.144-.029.06-.105-.082-.077-.219-.122-.092-.18.126-.057.026-.058-.215.061s-.376.22-.588.205c-.211-.014-.29.005-.359-.014-.068-.02-.4.213-.495.154-.096-.059-.404-.081-.349-.154.056-.072.13-.11.213-.072.083.037.166.074.222.037.056-.037.217-.165.177-.19-.04-.026-.002-.112-.232-.112s-.311.096-.366.035c-.054-.06.06-.13.06-.13zm.37 1.266s.212-.093.316 0c.105.094.19-.007.19-.064 0-.056.167-.25.167-.093s-.052.246.094.246.804-.217.962-.153c.157.064.278.049.238-.044-.04-.092-.143-.15-.342-.099-.198.05-.151.1-.323.1-.171 0-.362-.05-.362-.05s.053-.082.25-.024c.195.06.465-.072.539-.072.073 0 .275-.004.295.046.02.05.142.096.05.143-.094.047-.247.077-.142.137.106.06.349.048.36.11.012.063.127.156.08.156-.045 0-.129.088-.207.062-.077-.027-.086-.05-.012-.072.075-.022.074-.113.012-.113-.061 0-.031.032-.17 0-.14-.032-.326-.068-.315 0 .011.067.102.17-.066.185-.168.013-.246.069-.28.024-.032-.045-.149-.104-.057-.123.092-.02.18.065.213.051.033-.014.108-.021.045-.08-.062-.057-.166-.092-.07-.135.096-.044.02-.044-.163.046s-.285.166-.445.155c-.161-.01-.221.004-.273-.01-.052-.015-.303.16-.376.116-.072-.044-.306-.062-.264-.117.042-.054.099-.083.162-.054.063.028.125.056.168.028.042-.028.165-.125.134-.145-.03-.02-.001-.084-.176-.084-.174 0-.236.072-.277.027-.042-.046.045-.1.045-.1z" fill="#FFD100"/>
  </g>
</svg>
